X:1
T:Title
%%score { ( 1 4 ) | ( 2 3 ) }
L:1/8
Q:1/4=110
M:4/4
K:G
V:1 treble nm="Grand Piano"
V:4 treble 
V:2 treble 
V:3 treble 
V:1
 d4 B2 d2 | G3 [FA] B4 | B4 A2 G2 | [FA]8 | d4 B2 d2 | G3 [FA] [GB]4 | [FA]2 B2 [DAc]2 [CDF]2 | %7
w: Chas.~Edw.~Pollock * *|||||||
 [B,DG]8 | d4 B2 c2 | d3 d [Ge]4 | d4 B2 c2 | d2 B2 [DFA]4 | [DGB]4 [CFA]2 [B,EG]2 | %13
w: ||||||
 [B,EG]3 [DFA] [DGB]4 | A2 [^GB]2 [EAc]2 .[DF]2 | [B,DG]8 |] %16
w: |||
V:2
 [G,B,G]4 [G,D]2[K:bass] [F,A,D]2 | [E,B,E]3 [D,D][K:treble] [G,DG]4 | %2
 [G,DG]4[K:bass] [F,D]2 [E,^CE]2 | [D,D]8 | [G,B,G]4 [G,D]2[K:bass] [F,A,D]2 | %5
 [E,B,E]3 [D,D] [G,D]4 | z2 G2 D,2 D,2 | G,,8 | [G,B,G]4 [G,D]2 [G,A,D]2 | %9
 [G,B,G]3 [G,B,G][K:bass] [C,C]4 | [G,B,G]4 [G,D]2 [G,A,D]2 | [G,B,G]2 [G,DG]2[K:bass] D,4 | %12
 G,4 D,2 E,2 | E,3 D, G,4 | C,2 B,,2 A,,2 z C | G,,8 |] %16
V:3
 x6[K:bass] x2 | x4[K:treble] x4 | x4[K:bass] x4 | x8 | x6[K:bass] x2 | x8 | [D,D]4 z4 | x8 | x8 | %9
 x4[K:bass] x4 | x8 | x4[K:bass] x4 | x8 | x8 | z4 z2 D,2 | x8 |] %16
V:4
 x8 | x8 | x8 | x8 | x8 | x8 | x8 | x8 | x8 | x8 | x8 | x8 | x8 | x8 | E4 z4 | x8 |] %16

